!!!COM: Corelli, Arcangelo
!!!OTL: 
!!!ONM: Opus 6, No. 2
!!!OMV: 3
!!!CDT: 1653/2/17/-1713/1/8/
!!!OCY: Italia
**kern	**kern	**kern	**kern	**kern	**kern	**kern
*clefC	*clefG	*clefG	*clefG	*clefC	*clefG	*clefG
*k[b-]	*k[b-]	*k[b-]	*k[b-]	*k[b-]	*k[b-]	*k[b-]
*F:	*F:	*F:	*F:	*F:	*F:	*F:
*M4/4	*M4/4	*M4/4	*M4/4	*M4/4	*M4/4	*M4/4
=1	=1	=1	=1	=1	=1	=1
4D	4d	4f	4a	4D	4f	4a
8r	8r	8r	8r	8r	8r	8r
8D	8d	8f	8a	8D	8f	8a
4D	4d	4g	4b-	4D	4g	4b-
8r	8r	8r	8r	8r	8r	8r
8D	8d	8g	8b-	8D	8g	8b-
=2	=2	=2	=2	=2	=2	=2
2C#	2e	2g	2a	2C#	2g	2a
2r	2r	2r	2r	2r	2r	2r
=3	=3	=3	=3	=3	=3	=3
4d	4d	4f	4a	4d	4f	4a
4c	4e-	4f#	4a	4c	4f#	4a
4B-	4d	4g	4d	4B-	4g	4d
4F#	4d	[4a	8dd	4F#	[4a	8dd
.	.	.	8cc	.	.	8cc
=4	=4	=4	=4	=4	=4	=4
4.G	4.d	8a]	4.b-	4.G	8a]	4.b-
.	.	8d	.	.	8d	.
.	.	2g	.	.	2g	.
8G	8d	.	8b-	8G	.	8b-
4C#	4e	.	4a	4C#	.	4a
8D	8d	8f	[4a	8D	8f	[4a
8C	8e	8a	.	8C	8a	.
=5	=5	=5	=5	=5	=5	=5
2BB-	4f	2d	4a]	2BB-	2d	4a]
.	8e	.	4g	.	.	4g
.	8d	.	.	.	.	.
2AA	2e	2c#	2a	2AA	2c#	2a
=6	=6	=6	=6	=6	=6	=6
8AA	2r	4r	4.aa	8AA	4r	4.aa
8BB	.	.	.	8BB	.	.
8C#	.	2ee	.	8C#	2ee	.
8AA	.	.	8gg	8AA	.	8gg
8D	4.a	.	2ff	8D	.	2ff
8E	.	.	.	8E	.	.
8F	.	[4dd	.	8F	[4dd	.
8G	8a	.	.	8G	.	.
=7	=7	=7	=7	=7	=7	=7
8A	4.a	4dd]	8ee	8A	4dd]	8ee
8AA	.	.	8a	8AA	.	8a
8C	.	4cc	2aa	8C	4cc	2aa
8AA	8e	.	.	8AA	.	.
8D	4f	2b-	.	8D	2b-	.
8D	.	.	.	8D	.	.
8E	4c	.	[4gg	8E	.	[4gg
8C	.	.	.	8C	.	.
=8	=8	=8	=8	=8	=8	=8
8F	4.c	4a	8gg]	8F	4a	8gg]
8G	.	.	8cc	8G	.	8cc
8A	.	4.aa	8ff	8A	4.aa	8ff
8F	8cc	.	8ee	8F	.	8ee
8B-	4dd	.	8dd	8B-	.	8dd
8BB-	.	8dd	8ff	8BB-	8dd	8ff
8r	8r	8gg	[4bb-	8r	8gg	[4bb-
8B-	8dd	8ff	.	8B-	8ff	.
=9	=9	=9	=9	=9	=9	=9
8c	4g	8ee	8bb-]	8c	8ee	8bb-]
8C	.	8cc	8ee	8C	8cc	8ee
8r	8r	2ccc	8aa	8r	2ccc	8aa
8c	8e	.	8gg	8c	.	8gg
4d	4f	.	4ff	4d	.	4ff
4e	4cc	[4bb-	4gg	4e	[4bb-	4gg
=10	=10	=10	=10	=10	=10	=10
4.f	4cc	4bb-]	4.cc	4.f	4bb-]	4.cc
.	8r	4.aa-	.	.	4.aa-	.
8F	8f	.	8cc	8F	.	8cc
4.BB	4f	.	4dd	4.BB	.	4dd
.	.	8dd	.	.	8dd	.
.	4d	8gg	[4dd	.	8gg	[4dd
8BB	.	8ff	.	8BB	8ff	.
=11	=11	=11	=11	=11	=11	=11
4C	4g	4ee	8dd]	4C	4ee	8dd]
.	.	.	8g	.	.	8g
4r	4c	2ee-	8cc	4r	2ee-	8cc
.	.	.	8b-	.	.	8b-
4F	4f	.	8a	4F	.	8a
.	.	.	8f	.	.	8f
4r	4B-	[4dd-	8b-	4r	[4dd-	8b-
.	.	.	8a-	.	.	8a-
=12	=12	=12	=12	=12	=12	=12
4E-	4e-	4dd-]	8g	4E-	4dd-]	8g
.	.	.	8e-	.	.	8e-
4r	4A-	2cc	8a-	4r	2cc	8a-
.	.	.	8g	.	.	8g
4D-	4d-	.	8f	4D-	.	8f
.	.	.	8d-	.	.	8d-
4r	4G	[4b-	8g	4r	[4b-	8g
.	.	.	8f	.	.	8f
=13	=13	=13	=13	=13	=13	=13
4C	4g	4b-]	8e	4C	4b-]	8e
.	.	.	8c	.	.	8c
4r	4f	2a-	8f	4r	2a-	8f
.	.	.	8e-	.	.	8e-
4BB-	4B-	.	8d-	4BB-	.	8d-
.	.	.	8B-	.	.	8B-
4r	[4g	8g	[4b-	4r	8g	[4b-
.	.	8f	.	.	8f	.
=14	=14	=14	=14	=14	=14	=14
4C	4g]	8e	4b-]	4C	8e	4b-]
.	.	8c	.	.	8c	.
4r	4f	4f	8a-	4r	4f	8a-
.	.	.	8cc	.	.	8cc
4C	4cc	4g	4e	4C	4g	4e
4r	4f	8a-	4f	4r	8a-	4f
.	.	8cc	.	.	8cc	.
=15	=15	=15	=15	=15	=15	=15
4C	4cc	4e	4g	4C	4e	4g
4r	4f	4f	8a-	4r	4f	8a-
.	.	.	8cc	.	.	8cc
4BB-	4g	4c	4e	4BB-	4c	4e
4r	4r	4r	4r	4r	4r	4r
=16	=16	=16	=16	=16	=16	=16
4BB	4d	4a-	4f	4BB	4a-	4f
4r	4r	4r	4r	4r	4r	4r
2C	2c	2g	4.f	2C	2g	4.f
.	.	.	8e	.	.	8e
=17	=17	=17	=17	=17	=17	=17
2FF	2c	2f	2f	2FF	2f	2f
4E-	4c	4g	4cc	4E-	4g	4cc
4r	4r	4r	4r	4r	4r	4r
=18	=18	=18	=18	=18	=18	=18
4D-	4f	4f	4b-	4D-	4f	4b-
4r	4r	4r	4r	4r	4r	4r
2C	2g	2e	2cc	2C	2e	2cc
==	==	==	==	==	==	==
*-	*-	*-	*-	*-	*-	*-
!!!RWG: This file only contains pitch and duration data.
!!!RWG: Transposing instruments are not transposed.
!!!RWG: Durations of rests and tied notes may be interpreted.
!!!RWG: Key is interpreted using the Humdrum key tool.
!!!SCA: 
!!!YOR: Chrysander Edition
!!!AGN: concerto grosso
!!!AFT: stage1
!!!ENC: F. Bennion
!!!END: 1997/04/15
!!!AST: baroque
!!!YEC: Copyright 1994, Center for Computer Assisted Research in the Humanities
!!!YEM: Rights to all derivative electronic formats reserved.
!!!YEM: Refer to licensing agreement for further details.
!!!YEN: United States of America
!!!EED: W.B. Hewlett
!!!KEY: 3049012031
!!!EMD: Converted from MuseData to Humdrum Aug 2, 1999, by Bret Aarden using muse2kern.
!!!VTS: 3610498361
